apps/www/public/images/ga/enterprise/pwc--dark.svg

<svg width="388" height="293" viewBox="0 0 388 293" fill="none" xmlns="http://www.w3.org/2000/svg">
<g clip-path="url(#clip0_868_2082)">
<path d="M387 125.811H246.599V89.8706H387V125.811Z" fill="#E669A2"/>
<path d="M368.764 125.811H246.599V35.9213H368.764V125.811Z" fill="#F3BE26"/>
<path d="M318.292 125.811H246.599V0H318.292V125.811Z" fill="#EE9C34"/>
<path d="M332.396 125.811H246.599V14.0386H332.396V125.811Z" fill="#F3BC87"/>
<path d="M246.578 14.0597V125.799H318.283V14.0597H246.578Z" fill="#E3721C"/>
<path d="M174.706 125.811H246.598V143.782H174.706V125.811Z" fill="#AD1B02"/>
<path d="M246.578 35.9014V125.799H332.437V35.9014H246.578Z" fill="#E88D14"/>
<path d="M246.578 35.9014V125.799H318.283V35.9014H246.578Z" fill="#D85604"/>
<path d="M291.432 125.811H246.599V71.8574H291.432V125.811Z" fill="#C14303"/>
<path d="M246.578 89.8964V125.799H368.805V89.8964H246.578Z" fill="#DB4E18"/>
<path d="M246.578 89.8964V125.799H332.437V89.8964H246.578Z" fill="#D1390D"/>
<path d="M246.578 89.8964V125.799H318.283V89.8964H246.578Z" fill="#C22303"/>
<path d="M246.578 89.8964V125.799H291.476V89.8964H246.578Z" fill="#AD1B02"/>
<path d="M262.229 193.5C249.997 195.675 243.473 204.918 243.473 220.958C243.473 237.269 252.171 248.144 264.947 248.144C271.2 248.144 276.636 245.969 288.053 240.26C288.053 253.581 288.053 253.581 288.053 253.581C274.19 260.105 266.035 261.737 255.162 261.737C242.929 261.737 234.231 258.746 227.435 251.406C220.367 244.338 216.562 235.095 216.562 224.492C216.562 201.384 233.959 185.345 259.239 185.345C275.821 185.345 287.509 193.229 287.509 204.375C287.509 211.715 282.073 216.88 274.19 216.88C270.112 216.88 266.85 215.521 262.229 213.074" fill="#EDEDED"/>
<path d="M201.067 224.492C212.212 210.627 216.29 204.918 216.29 198.122C216.29 191.326 210.853 185.345 203.242 185.345C198.893 185.345 194.815 187.791 192.912 189.966C192.912 218.511 192.912 218.511 192.912 218.511C174.7 242.978 174.7 242.978 174.7 242.978C174.7 187.52 174.7 187.52 174.7 187.52C157.303 187.52 157.303 187.52 157.303 187.52C128.488 235.095 128.488 235.095 128.488 235.095C128.488 187.52 128.488 187.52 128.488 187.52C118.703 187.52 118.703 187.52 118.703 187.52C92.335 193.5 92.335 193.5 92.335 193.5C92.335 200.297 92.335 200.297 92.335 200.297C106.742 201.656 106.742 201.656 106.742 201.656C106.742 260.649 106.742 260.649 106.742 260.649C124.955 260.649 124.955 260.649 124.955 260.649C152.681 214.977 152.681 214.977 152.681 214.977C152.681 260.649 152.681 260.649 152.681 260.649C173.069 260.649 173.069 260.649 173.069 260.649" fill="#EDEDED"/>
<path d="M37.1535 251.406C39.3282 251.406 39.8718 251.406 41.231 251.406C55.9099 251.406 64.0648 242.435 64.0648 224.492C64.0648 209.54 57.5408 201.384 45.3084 201.384C43.6775 201.384 41.231 201.656 37.1535 202.472V251.406ZM37.1535 283.485C49.1141 286.204 49.1141 286.204 49.1141 286.204C49.1141 293 49.1141 293 49.1141 293C2.08732 293 2.08733 293 2.08733 293C2.08733 286.204 2.08733 286.204 2.08733 286.204C12.9606 283.485 12.9606 283.485 12.9606 283.485C12.9606 201.384 12.9606 201.384 12.9606 201.384C0.999999 201.384 1 201.384 1 201.384C1 194.588 1 194.588 1 194.588C29.5423 185.888 29.5423 185.888 29.5423 185.888C37.1535 185.888 37.1535 185.888 37.1535 185.888C37.1535 195.675 37.1535 195.675 37.1535 195.675C50.4732 187.52 55.0944 186.16 62.162 186.16C77.9282 186.16 89.8887 200.841 89.8887 221.23C89.8887 244.61 73.8507 260.649 49.3859 260.649C46.6676 260.649 42.0465 260.377 37.1535 260.105" fill="#EDEDED"/>
</g>
<defs>
<clipPath id="clip0_868_2082">
<rect width="386" height="293" fill="white" transform="translate(1)"/>
</clipPath>
</defs>
</svg>

<svg xmlns="http://www.w3.org/2000/svg" width="388" height="293" fill="none" viewBox="0 0 388 293"><g clip-path="url(#a)"><path fill="#e669a2" d="M387 125.811H246.599v-35.94H387z"/><path fill="#f3be26" d="M368.764 125.811H246.599v-89.89h122.165z"/><path fill="#ee9c34" d="M318.292 125.811h-71.693V0h71.693z"/><path fill="#f3bc87" d="M332.396 125.811h-85.797V14.039h85.797z"/><path fill="#e3721c" d="M246.578 14.06v111.739h71.705V14.059z"/><path fill="#ad1b02" d="M174.706 125.811h71.892v17.971h-71.892z"/><path fill="#e88d14" d="M246.578 35.901V125.8h85.859V35.901z"/><path fill="#d85604" d="M246.578 35.901V125.8h71.705V35.901z"/><path fill="#c14303" d="M291.432 125.811h-44.833V71.857h44.833z"/><path fill="#db4e18" d="M246.578 89.896V125.8h122.227V89.896z"/><path fill="#d1390d" d="M246.578 89.896V125.8h85.859V89.896z"/><path fill="#c22303" d="M246.578 89.896V125.8h71.705V89.896z"/><path fill="#ad1b02" d="M246.578 89.896V125.8h44.898V89.896z"/><path fill="#ededed" d="M262.229 193.5c-12.232 2.175-18.756 11.418-18.756 27.458 0 16.311 8.698 27.186 21.474 27.186 6.253 0 11.689-2.175 23.106-7.884v13.321c-13.863 6.524-22.018 8.156-32.891 8.156-12.233 0-20.931-2.991-27.727-10.331-7.068-7.068-10.873-16.311-10.873-26.914 0-23.108 17.397-39.147 42.677-39.147 16.582 0 28.27 7.884 28.27 19.03 0 7.34-5.436 12.505-13.319 12.505-4.078 0-7.34-1.359-11.961-3.806M201.067 224.492c11.145-13.865 15.223-19.574 15.223-26.37s-5.437-12.777-13.048-12.777c-4.349 0-8.427 2.446-10.33 4.621v28.545L174.7 242.978V187.52h-17.397l-28.815 47.575V187.52h-9.785l-26.368 5.98v6.797l14.407 1.359v58.993h18.213l27.726-45.672v45.672h20.388M37.154 251.406h4.077c14.679 0 22.834-8.971 22.834-26.914 0-14.952-6.524-23.108-18.757-23.108-1.63 0-4.077.272-8.154 1.088zm0 32.079 11.96 2.719V293H2.087v-6.796l10.874-2.719v-82.101H1v-6.796l28.542-8.7h7.611v9.787c13.32-8.155 17.941-9.515 25.009-9.515 15.766 0 27.727 14.681 27.727 35.07 0 23.38-16.038 39.419-40.503 39.419-2.718 0-7.34-.272-12.233-.544"/></g><defs><clipPath id="a"><path fill="#fff" d="M1 0h386v293H1z"/></clipPath></defs></svg>
